svg/transport/jeep_fill.svg

<svg xmlns="http://www.w3.org/2000/svg" width="24" height="24" viewBox="0 0 24 24"><g fill="none" fill-rule="evenodd"><rect width="24" height="24"/><path fill="#09244B" d="M12.8676,5 C13.9214,5 14.8979,5.5529 15.4401,6.45651 L17.607,10.0681 L20.2481,10.3982 C21.2489,10.5233 22,11.3741 22,12.3828 L22,15 C22,16.3538 21.1033,17.4981 19.8715,17.8715 C19.4981,19.1033 18.3538,20 17,20 C15.6938,20 14.5825,19.1652 14.1707,18 L9.82929,18 C9.41746,19.1652 8.30622,20 7,20 C5.64623,20 4.5019,19.1033 4.12854,17.8715 C2.89669,17.4981 2,16.3538 2,15 L2,11.1926 C2,10.9381 2.04855,10.686 2.14305,10.4498 L3.56864,6.88583 C4.02423,5.74685 5.12735,5 6.35407,5 L12.8676,5 Z M7,16 C6.44772,16 6,16.4477 6,17 C6,17.5523 6.44772,18 7,18 C7.55228,18 8,17.5523 8,17 C8,16.4477 7.55228,16 7,16 Z M17,16 C16.4477,16 16,16.4477 16,17 C16,17.5523 16.4477,18 17,18 C17.5523,18 18,17.5523 18,17 C18,16.4477 17.5523,16 17,16 Z M12.8676,7 L11,7 L11,10 L15.2338,10 L13.7251,7.4855 C13.5444,7.1843 13.2189,7 12.8676,7 Z M9,7 L6.35407,7 C5.94516,7 5.57745,7.24895 5.42559,7.62861 L4.47703,10 L9,10 L9,7 Z"/></g></svg>

<svg xmlns="http://www.w3.org/2000/svg" width="24" height="24"><g fill="none" fill-rule="evenodd"><path d="M0 0h24v24H0z"/><path fill="#09244B" d="M12.868 5a3 3 0 0 1 2.572 1.457l2.167 3.611 2.641.33A2 2 0 0 1 22 12.383V15a3.001 3.001 0 0 1-2.128 2.872A3.001 3.001 0 0 1 14.17 18H9.829a3.001 3.001 0 0 1-5.7-.128A3.001 3.001 0 0 1 2 15v-3.807a2 2 0 0 1 .143-.743l1.426-3.564A3 3 0 0 1 6.354 5zM7 16a1 1 0 1 0 0 2 1 1 0 0 0 0-2m10 0a1 1 0 1 0 0 2 1 1 0 0 0 0-2m-4.132-9H11v3h4.234l-1.509-2.514A1 1 0 0 0 12.868 7M9 7H6.354a1 1 0 0 0-.928.629L4.477 10H9z"/></g></svg>
